X:68
T:Gan Ainm
S:Paidraig McDonagh, Galway (banjo)
D:Private tape
R:Reel
N:As played
Z:Bernie Stocks
M:4/4
K:D %Em modal
BEEE d3B | ADDE FGAd | BEEF GABc | dddf eedc | BEEE d3B | ADDE FGAd |
BGEF GABc | d2Ac BEE2 || edef ggfe | defg afdf | edef (3gagfe |
dBAd BEE2 | edef ggfe | defg afdf | (3aag fg egfe | dBAF EFGA ||
<end>
<start>
